images_elementary_svg/cmd/32/formatgroup.svg

<svg height="32" width="32" xmlns="http://www.w3.org/2000/svg" xmlns:xlink="http://www.w3.org/1999/xlink"><linearGradient id="a" gradientUnits="userSpaceOnUse" x1="15.55294636727" x2="15.55294636727" y1="12.66665019737" y2="21.33335185737"><stop offset="0" stop-color="#fff"/><stop offset=".49771357" stop-color="#fff" stop-opacity=".235294"/><stop offset=".74999994" stop-color="#fff" stop-opacity=".156863"/><stop offset="1" stop-color="#fff" stop-opacity=".392157"/></linearGradient><linearGradient id="b" gradientUnits="userSpaceOnUse" x1="17.86857798246" x2="17.86857798246" y1="11.45689593147" y2="22.51068173452"><stop offset="0" stop-color="#64baff"/><stop offset="1" stop-color="#3689e6"/></linearGradient><linearGradient id="c" gradientUnits="userSpaceOnUse" x1="9.50124911784" x2="9.50124911784" y1="18.99999997553" y2="26.00000031424"><stop offset="0" stop-color="#fff"/><stop offset="0" stop-color="#fff" stop-opacity=".235294"/><stop offset="1" stop-color="#fff" stop-opacity=".156863"/><stop offset="1" stop-color="#fff" stop-opacity=".392157"/></linearGradient><linearGradient id="d" gradientUnits="userSpaceOnUse" x1="10.86857759346" x2="10.86857759346" y1="17.58189581598" y2="27.38568226285"><stop offset="0" stop-color="#fafafa"/><stop offset="1" stop-color="#d4d4d4"/></linearGradient><g transform="matrix(1.33333 0 0 1.33333 .00004 -10.6666)"><rect fill="url(#d)" height="9.750025" rx=".375001" width="9.750025" x="4.499981" y="17.749994"/><path d="m4.874982 18.124996h9.000022v9.000022h-9.000022z" style="opacity:.5;fill:none;stroke-width:.750002;stroke-linecap:round;stroke-linejoin:round;stroke:url(#c)"/><rect height="10.500026" rx=".750001" style="opacity:.5;fill:none;stroke:#555761;stroke-width:.750002;stroke-linecap:round;stroke-linejoin:round" width="10.500026" x="4.12498" y="17.374994"/><path d="m20.500001 17a5.5000005 5.5000019 0 1 1 -11.0000009 0 5.5000005 5.5000019 0 1 1 11.0000009 0z" fill="url(#b)"/><path d="m19.87502 17.000001a4.8750191 4.8750194 0 1 1 -9.750038 0 4.8750191 4.8750194 0 1 1 9.750038 0z" style="opacity:.5;fill:none;stroke-width:.750002;stroke-linecap:round;stroke-linejoin:round;stroke:url(#a)"/><path d="m20.62443 17.000001a5.624429 5.6244304 0 1 1 -11.2488579 0 5.624429 5.6244305 0 1 1 11.2488579 0z" style="opacity:.5;fill:none;stroke:#002e99;stroke-width:.766969;stroke-linecap:round;stroke-linejoin:round"/><g stroke-width=".750002"><path d="m1.1249729 9.1249728h2.2500056v2.2500052h-2.2500056z" fill="#fafafa" stroke="#7e8087" stroke-linecap="round" stroke-linejoin="round" stroke-opacity=".949458"/><path d="m3.7499794 9.8749747h16.5000416" fill="none" opacity=".6" stroke="#abacae"/><path d="m20.625022 9.1249728h2.250005v2.2500052h-2.250005z" fill="#fafafa" stroke="#7e8087" stroke-linecap="round" stroke-linejoin="round" stroke-opacity=".949458"/><path d="m3.7499794 29.375023h16.5000416" fill="none" opacity=".6" stroke="#abacae"/><path d="m22.125025 11.749979v16.500042" fill="none" opacity=".6" stroke="#abacae"/><path d="m1.8749747 11.749979v16.500042" fill="none" opacity=".6" stroke="#abacae"/><path d="m1.1249728 28.625022h2.2500056v2.250005h-2.2500056z" fill="#fafafa" stroke="#7e8087" stroke-linecap="round" stroke-linejoin="round" stroke-opacity=".949458"/><path d="m20.625022 28.625022h2.250005v2.250005h-2.250005z" fill="#fafafa" stroke="#7e8087" stroke-linecap="round" stroke-linejoin="round" stroke-opacity=".949458"/></g></g></svg>

<?xml version="1.0" encoding="UTF-8" standalone="no"?>
<svg
   xmlns:dc="http://purl.org/dc/elements/1.1/"
   xmlns:cc="http://creativecommons.org/ns#"
   xmlns:rdf="http://www.w3.org/1999/02/22-rdf-syntax-ns#"
   xmlns:svg="http://www.w3.org/2000/svg"
   xmlns="http://www.w3.org/2000/svg"
   xmlns:xlink="http://www.w3.org/1999/xlink"
   xmlns:sodipodi="http://sodipodi.sourceforge.net/DTD/sodipodi-0.dtd"
   xmlns:inkscape="http://www.inkscape.org/namespaces/inkscape"
   version="1.1"
   width="32"
   height="32"
   id="svg7435"
   sodipodi:docname="formatgroup.svg"
   inkscape:version="0.92.3 (unknown)"
   inkscape:export-filename="/home/rizmut/Dokumen/Rizmut/Github/libreoffice-style-elementary/images_elementary/cmd/32/formatgroup.png"
   inkscape:export-xdpi="96"
   inkscape:export-ydpi="96">
  <sodipodi:namedview
     pagecolor="#ffffff"
     bordercolor="#666666"
     borderopacity="1"
     objecttolerance="10"
     gridtolerance="10"
     guidetolerance="10"
     inkscape:pageopacity="0"
     inkscape:pageshadow="2"
     inkscape:window-width="640"
     inkscape:window-height="480"
     id="namedview39"
     showgrid="false"
     inkscape:zoom="6.9826795"
     inkscape:cx="-5.0696392"
     inkscape:cy="23.919236"
     inkscape:current-layer="g4813">
    <inkscape:grid
       type="xygrid"
       id="grid4797" />
  </sodipodi:namedview>
  <defs
     id="defs7437">
    <linearGradient
       id="linearGradient1847">
      <stop
         id="stop1839"
         style="stop-color:#ffffff;stop-opacity:1"
         offset="0" />
      <stop
         id="stop1841"
         style="stop-color:#ffffff;stop-opacity:0.23529412"
         offset="0.49771357" />
      <stop
         id="stop1843"
         style="stop-color:#ffffff;stop-opacity:0.15686275"
         offset="0.74999994" />
      <stop
         id="stop1845"
         style="stop-color:#ffffff;stop-opacity:0.39215687"
         offset="1" />
    </linearGradient>
    <linearGradient
       id="linearGradient963">
      <stop
         offset="0"
         style="stop-color:#ffffff;stop-opacity:1"
         id="stop955" />
      <stop
         offset="0"
         style="stop-color:#ffffff;stop-opacity:0.23529412"
         id="stop957" />
      <stop
         offset="1"
         style="stop-color:#ffffff;stop-opacity:0.15686275"
         id="stop959" />
      <stop
         offset="1"
         style="stop-color:#ffffff;stop-opacity:0.39215687"
         id="stop961" />
    </linearGradient>
    <linearGradient
       id="linearGradient874"
       gradientTransform="matrix(0.48571543,0,0,0.45629666,-34.78968,-5.734851)"
       gradientUnits="userSpaceOnUse"
       x1="25.132275"
       x2="25.132275"
       y1="0.98520601"
       y2="47.013336">
      <stop
         style="stop-color:#fafafa;stop-opacity:1"
         offset="0"
         stop-color="#f4f4f4"
         id="stop870" />
      <stop
         style="stop-color:#d4d4d4;stop-opacity:1"
         offset="1"
         stop-color="#dbdbdb"
         id="stop872" />
    </linearGradient>
    <linearGradient
       id="linearGradient947-5">
      <stop
         offset="0"
         style="stop-color:#64baff;stop-opacity:1"
         id="stop943-6" />
      <stop
         offset="1"
         style="stop-color:#3689e6;stop-opacity:1"
         id="stop945-2" />
    </linearGradient>
    <linearGradient
       xlink:href="#linearGradient1847"
       id="linearGradient1697-2-49"
       gradientUnits="userSpaceOnUse"
       gradientTransform="matrix(0.23423518,0,0,0.23423518,3.4200033,35.753457)"
       x1="51.798126"
       y1="-98.562508"
       x2="51.798126"
       y2="-61.562508" />
    <linearGradient
       xlink:href="#linearGradient947-5"
       id="linearGradient1695-1-9"
       gradientUnits="userSpaceOnUse"
       gradientTransform="matrix(0.52631574,0,0,0.52631574,3.6842131,33.684197)"
       x1="26.950296"
       y1="-42.231876"
       x2="26.950296"
       y2="-21.229681" />
    <linearGradient
       xlink:href="#linearGradient963"
       id="linearGradient1693-4-2-6"
       gradientUnits="userSpaceOnUse"
       gradientTransform="matrix(0.21621622,0,0,0.21621622,4.3120621,17.309558)"
       x1="23.99999"
       y1="7.818294"
       x2="23.99999"
       y2="40.193295" />
    <linearGradient
       xlink:href="#linearGradient874"
       id="linearGradient878-75-4"
       gradientUnits="userSpaceOnUse"
       gradientTransform="matrix(0.52631574,0,0,0.52631574,3.1842121,16.184197)"
       x1="14.600296"
       y1="2.6556277"
       x2="14.600296"
       y2="21.282824" />
  </defs>
  <metadata
     id="metadata7440">
    <rdf:RDF>
      <cc:Work
         rdf:about="">
        <dc:format>image/svg+xml</dc:format>
        <dc:type
           rdf:resource="http://purl.org/dc/dcmitype/StillImage" />
        <dc:title></dc:title>
      </cc:Work>
    </rdf:RDF>
  </metadata>
  <g
     id="g4813"
     transform="matrix(1.33333,0,0,1.33333,3.9933334e-5,-10.6666)">
    <rect
       width="10"
       height="10"
       rx="1"
       ry="1"
       x="4.5"
       y="17.5"
       id="rect5505-21-8-4-7-1"
       style="color:#000000;display:inline;overflow:visible;visibility:visible;opacity:1;fill:url(#linearGradient878-75-4);fill-opacity:1;fill-rule:nonzero;stroke:none;stroke-width:0.99999994;marker:none;enable-background:accumulate" />
    <rect
       width="8.6262693"
       height="8.3737497"
       x="4.8749824"
       y="18.124996"
       id="rect6741-9-5-1-7"
       style="opacity:0.5;fill:none;stroke:url(#linearGradient1693-4-2-6);stroke-width:0.99999988;stroke-linecap:round;stroke-linejoin:round;stroke-miterlimit:4;stroke-dasharray:none;stroke-dashoffset:0;stroke-opacity:1" />
    <rect
       width="10.37502"
       height="10.125007"
       rx="1"
       ry="1"
       x="4.1249804"
       y="17.374994"
       id="rect5505-21-8-1-25-1-2"
       style="color:#000000;display:inline;overflow:visible;visibility:visible;opacity:0.5;vector-effect:none;fill:none;fill-opacity:1;stroke:#555761;stroke-width:0.75000191;stroke-linecap:round;stroke-linejoin:round;stroke-miterlimit:4;stroke-dasharray:none;stroke-dashoffset:0;stroke-opacity:1;marker:none;enable-background:accumulate" />
    <path
       inkscape:connector-curvature="0"
       style="opacity:1;vector-effect:none;fill:url(#linearGradient1695-1-9);fill-opacity:1;stroke:none;stroke-width:0.99999994;stroke-linecap:butt;stroke-linejoin:miter;stroke-miterlimit:4;stroke-dasharray:none;stroke-dashoffset:0;stroke-opacity:1;marker:none"
       id="path8335-9-5-72"
       d="M 20.500001,17 A 5.5000005,5.5000019 0 1 1 9.5000001,17 5.5000005,5.5000019 0 1 1 20.500001,17 Z" />
    <path
       inkscape:connector-curvature="0"
       style="opacity:0.5;vector-effect:none;fill:none;fill-opacity:1;stroke:url(#linearGradient1697-2-49);stroke-width:0.75000188;stroke-linecap:round;stroke-linejoin:round;stroke-miterlimit:4;stroke-dasharray:none;stroke-dashoffset:0;stroke-opacity:1"
       id="path8339-9-2"
       d="m 19.87502,17.000001 a 4.8750191,4.8750194 0 1 1 -9.750038,0 4.8750191,4.8750194 0 1 1 9.750038,0 z" />
    <path
       inkscape:connector-curvature="0"
       style="opacity:0.5;vector-effect:none;fill:none;fill-opacity:1;stroke:#002e99;stroke-width:0.76696938;stroke-linecap:round;stroke-linejoin:round;stroke-miterlimit:4;stroke-dasharray:none;stroke-dashoffset:0;stroke-opacity:1;marker:none"
       id="path8335-7-6"
       d="m 20.62443,17.000001 a 5.624429,5.6244304 0 1 1 -11.2488579,0 5.624429,5.6244305 0 1 1 11.2488579,0 z" />
    <path
       inkscape:connector-curvature="0"
       style="opacity:1;fill:#fafafa;fill-opacity:1;stroke:#7e8087;stroke-width:0.75000191;stroke-linecap:round;stroke-linejoin:round;stroke-miterlimit:4;stroke-dasharray:none;stroke-opacity:0.94945846"
       d="M 1.1249729,9.1249728 H 3.3749785 V 11.374978 H 1.1249729 Z"
       id="path18105-5-0-5-6-3-1"
       sodipodi:nodetypes="ccccc" />
    <path
       inkscape:connector-curvature="0"
       style="opacity:0.6;fill:none;stroke:#abacae;stroke-width:0.75000191;stroke-linecap:butt;stroke-linejoin:miter;stroke-miterlimit:4;stroke-dasharray:none;stroke-opacity:1"
       d="M 3.7499794,9.8749747 H 20.250021"
       id="path1425-0"
       sodipodi:nodetypes="cc" />
    <path
       inkscape:connector-curvature="0"
       style="opacity:1;fill:#fafafa;fill-opacity:1;stroke:#7e8087;stroke-width:0.75000191;stroke-linecap:round;stroke-linejoin:round;stroke-miterlimit:4;stroke-dasharray:none;stroke-opacity:0.94945846"
       d="m 20.625022,9.1249728 h 2.250005 v 2.2500052 h -2.250005 z"
       id="path18105-5-0-5-6-3-0-61"
       sodipodi:nodetypes="ccccc" />
    <path
       inkscape:connector-curvature="0"
       style="opacity:0.6;fill:none;stroke:#abacae;stroke-width:0.75000191;stroke-linecap:butt;stroke-linejoin:miter;stroke-miterlimit:4;stroke-dasharray:none;stroke-opacity:1"
       d="M 3.7499794,29.375023 H 20.250021"
       id="path1425-8-9"
       sodipodi:nodetypes="cc" />
    <path
       inkscape:connector-curvature="0"
       style="opacity:0.6;fill:none;stroke:#abacae;stroke-width:0.75000191;stroke-linecap:butt;stroke-linejoin:miter;stroke-miterlimit:4;stroke-dasharray:none;stroke-opacity:1"
       d="M 22.125025,11.749979 V 28.250021"
       id="path1425-88-9"
       sodipodi:nodetypes="cc" />
    <path
       inkscape:connector-curvature="0"
       style="opacity:0.6;fill:none;stroke:#abacae;stroke-width:0.75000191;stroke-linecap:butt;stroke-linejoin:miter;stroke-miterlimit:4;stroke-dasharray:none;stroke-opacity:1"
       d="M 1.8749747,11.749979 V 28.250021"
       id="path1425-8-3-0"
       sodipodi:nodetypes="cc" />
    <path
       sodipodi:nodetypes="ccccc"
       id="path4815"
       d="m 1.1249728,28.625022 h 2.2500056 v 2.250005 H 1.1249728 Z"
       style="opacity:1;fill:#fafafa;fill-opacity:1;stroke:#7e8087;stroke-width:0.75000191;stroke-linecap:round;stroke-linejoin:round;stroke-miterlimit:4;stroke-dasharray:none;stroke-opacity:0.94945846"
       inkscape:connector-curvature="0" />
    <path
       sodipodi:nodetypes="ccccc"
       id="path4817"
       d="m 20.625022,28.625022 h 2.250005 v 2.250005 h -2.250005 z"
       style="opacity:1;fill:#fafafa;fill-opacity:1;stroke:#7e8087;stroke-width:0.75000191;stroke-linecap:round;stroke-linejoin:round;stroke-miterlimit:4;stroke-dasharray:none;stroke-opacity:0.94945846"
       inkscape:connector-curvature="0" />
  </g>
</svg>
